material/.icons/material/beaker.svg

<svg xmlns="http://www.w3.org/2000/svg" viewBox="0 0 24 24"><path d="M3 3v2a2 2 0 012 2v12a2 2 0 002 2h10a2 2 0 002-2V7a2 2 0 012-2V3H3m4 6h3v1H7V9m0 2h3v1H7v-1m3 5H7v-1h3v1m2-2H7v-1h5v1m0-6H7V7h5v1z"/></svg>

<?xml version="1.0" encoding="UTF-8"?><!DOCTYPE svg PUBLIC "-//W3C//DTD SVG 1.1//EN" "http://www.w3.org/Graphics/SVG/1.1/DTD/svg11.dtd"><svg xmlns="http://www.w3.org/2000/svg" xmlns:xlink="http://www.w3.org/1999/xlink" version="1.1" id="mdi-beaker" width="24" height="24" viewBox="0 0 24 24"><path d="M3,3V5A2,2 0 0,1 5,7V19A2,2 0 0,0 7,21H17A2,2 0 0,0 19,19V7A2,2 0 0,1 21,5V3H3M7,9H10V10H7V9M7,11H10V12H7V11M10,16H7V15H10V16M12,14H7V13H12V14M12,8H7V7H12V8Z" /></svg>
